X: 107
T: Artık Bu Solan Bahçede
C: Alâeddin Yavaşca
O: Turkey
F: http://compmusic.upf.edu/node/140
N: hicaz--sarki--duyek--artik_bu--alaeddin_yavasca
N: makam= hicaz
N: form= sarki
N: usul= duyek = 8/4
M: 8/4
L: 1/16
K: C _7/8B ^f ^c 
Q: 1/4=132
%%MIDI tuningsystem comma53
.G.A B4 G2 A8  | .A.B c4 A2 B8  | A2 e4 de d2 =f2 e2 d2  | \
w:  ARANAĞME  |   |   | 
c2 d4 cd c2 e2 d2 c2  | 
w:   | 
B2 c4 Bc e2 d2 c2 BA  | A2 B4 G2 A8  | \
w:   |   | 
.G.A B4 G2 A8  | .A.B c4 A2 B8  | 
w:  ARANAĞME  |   | 
A2 e4 de d2 =f2 e2 d2  | c2 d4 cd c2 e2 d2 c2  | \
w:   |   | 
B2 c4 Bc e2 d2 c2 BA  | 
w:   | 
A2 B4 G2 A8  | z2 d6 c4 c2 d2  | e4 =f4 e2 d6  | \
w:   |  Ar tık  bu  so  |  lan  bah çe de   | 
e2 d6 A2 .Bc d4  | z2 ed cB AB c2 {d}cB c2 d2  | 
w:  SAZ  |  bül *  *  *  *  *  bül *  *  *  le re   | 
dc2B cB BA AA Bc de fg  | a2 ag ^3/4fe de ^f2 {g}fe g2 a2  | 
w:  yer  *  *  *  *  *  *  yok   SAZ  |  *  bül *  *  *  *  *  bül *  *  *  le re   | 
ag2f g^3/4f fe e8  | z2 a6 a2 ga =b2 ag  | \
w:  yer  *  *  *  *  *  *  yok    |  SAZ  | 
{a}g8 g2 fg a2 gf  | 
w:   | 
{g}f8 f2 ef ag fe  | d2 =f2 e2 d2 c2 B2 A4  | \
w:   |  SAZ  | 
z2 d6 c4 c2 d2  | e4 =f4 e2 d6  | 
w:  Ar tık  bu  so  |  lan  bah çe de   | 
e2 d6 A2 .Bc d4  | z2 ed cB AB c2 {d}cB c2 d2  | \
w:  SAZ  |  bül *  *  *  *  *  bül *  *  *  le re   | 
dc2B cB BA AA Bc de fg  | 
w:  yer  *  *  *  *  *  *  yok   SAZ  | 
a2 ag ^3/4fe de ^f2 {g}fe g2 a2  | \
w:  *  bül *  *  *  *  *  bül *  *  *  le re   | 
ag2f g^3/4f fe e8  | z2 a6 a2 ga =b2 ag  | 
w:  yer  *  *  *  *  *  *  yok    |  SAZ  | 
{a}g8 g2 fg a2 gf  | {g}f8 f2 ef ag fe  | \
w:   |   | 
dd' =c'=b ag ^3/4fe ag fe d2 g2  | 
w:  SAZ  | 
z2 g4 ^3/4f2 gf ^1/4fe e4  | e2 =f4 ge e2 d2 c4  | \
w:  Bir  *  yer  *  *  *  ki   |  se ven *  *  ler   | 
za g=f ed2f ed cB c4  | 
w:  SAZ  | 
c2 d2 e3d d2 {e}dc B2 d2  | cB BA {B}A4 FG AB cd ef  | 
w:  se vi len *  ler *  *  *  den_ e  |  ser  *  *  *  *  yok   SAZ  | 
g2 a2 g2 =fe e2 d2 c2 {e}f2  | ed cd cB BA A4 z4  | \
w:  se vi len *  *  ler *  den_ *  e  |  ser  *  *  *  *  *  *  *  yok    | 
a2 a6 a2 ga =b2 ag  | 
w:  SAZ  | 
g8 g2 fg a2 gf  | f8 f2 ef ag fe  | dd' =c'=b ag ^3/4fe ag fe d2 g2  | 
w:   |   |  SAZ  | 
z2 g4 ^3/4f2 gf ^1/4fe e4  | e2 =f4 ge e2 d2 c4  | \
w:  Bir  *  yer  *  *  *  ki   |  se ven *  *  ler   | 
za g=f ed2f ed cB c4  | 
w:  SAZ  | 
c2 d2 e3d d2 {e}dc B2 d2  | cB BA {B}A4 FG AB cd ef  | 
w:  se vi len *  ler *  *  *  den_ e  |  ser  *  *  *  *  yok   SAZ  | 
g2 a2 g2 =fe e2 d2 c2 {e}f2  | ed cd cB BA A4 z4  | \
w:  se vi len *  *  ler *  den_ *  e  |  ser  *  *  *  *  *  *  *  yok    | 
A2 d6 d4 e4  | 
w:   | 
c2 e6 e4 f4  | d2 ff2f g2 fg f^e de fg  | \
w:   |   | 
^e2 f4 =c'=b ag fe f4  | 
w:   | 
z2 d6 f4 ^e2 f2  | g4 f4 ^e2 f2 g4  | \
w:  Bez min de  ka  |  deh  kır dı ğı mız   | 
g8 ^e2 f2 g4  | f4 g2 a2 a2 {b}ag f2 a2  | 
w:  *  SAZ  |  sev gi li ler   | 
g2 a2 g2 a2 =ba g4 f2  | f4 g2 a2 ag a=b ag gf  | \
w:  yok    |  sev gi li ler  *  *  *  ler   | 
{g}f12 ^e4  | 
w:  *  yok   SAZ  | 
d2 .f6 f4 g4  | f2 a6 a4 aa ga  | _1/4b3a g2 f2 a3g f2 ^e2  | \
w:   |   |   | 
f2 d'4 =c'=b ag f^e f4  | 
w:   | 
z2 f6 g4 f2 g2  | a4 {a}_1/4b4 a2 g2 f4  | \
w:  Bez min de  ka  |  deh  *  kır dı ğı mız   | 
f8 .a2 .g2 ^3/4f4  | e2 ^3/4f2 g2 a2 g2 f2 e2 d2  | 
w:  *  SAZ  |  sev *  gi li ler   | 
g4 g2 a2 {=b}ag f^2/4e ^3/4f4  | ^3/4f3e g2 fe {g}a3g gf fe  | \
w:  yok    |  sev *  gi li *  *  ler   | 
e8 zA Bc de fg  | 
w:  yok   SAZ  | 
a2 a6 a2 ga =b2 ag  | g8 g2 fg a2 gf  | \
w:   |   | 
f8 f2 ef ag fe  | 
w:   | 
dd' =c'=b ag ^3/4fe ag fe d2 g2  | \
w:   | 
z2 g4 ^3/4f2 gf ^1/4fe e4  | 
w:  Bir  *  yer  *  *  *  ki   | 
e2 =f4 ge e2 d2 c4  | za g=f ed2f ed cB c4  | \
w:  se ven *  *  ler   |  SAZ  | 
c2 d2 e3d d2 {e}dc B2 d2  | 
w:  se vi len *  ler *  *  *  den_ e  | 
cB BA {B}A4 FG AB cd ef  | g2 a2 g2 =fe e2 d2 c2 {e}f2  | 
w:  ser  *  *  *  *  yok   SAZ  |  se vi len *  *  ler *  den_ *  e  | 
ed cd cB BA A4 z4  | |


